!!!OTL: Josephus der roemische Kaiser
!!!ARE: Europa, Mitteleuropa, Deutschland, Odenwald
!!!SCT: E0337
!!!YEM: Copyright 1995, estate of Helmut Schaffrath.
**kern
*ICvox
*Ivox
*M6/8
*k[f#]
*G:
{8d
=1
8d
8g
8g
8g
8a
8b
=2
4.b
4a}
{8dd
=3
8dd
8b
8b
8cc
8a
8a
=4
2b
8r}
{8d
=5
8d
8g
8g
8g
8a
8b
=6
4.b
4a}
{8dd
=7
8dd
8b
8b
8cc
8a
8a
=8
2b
8r}
{8g
=9
4g
8b
4b
8dd
=10
4dd
8b
4cc}
{8b
=11
8b
8a
8a
8a
8b
8cc
=12
4cc
8a
4b}
{8d
=13
8d
8g
8g
8g
8a
8b
=14
4.b
4a}
{8dd
=15
8dd
8b
8b
8cc
8a
8a
=16
4.a
8g
8r}
==
!!!AGN: historisches Lied, Tod Kaiser Joseph II (1790)
!!!ONB: ESAC (Essen Associative Code) Database: ERK1
!!!AMT: compound duple
!!!AIN: vox
!!!EED: Helmut Schaffrath
!!!EEV: 1.0
*-
